X: 1
T: Eeen A Can
M: 6/8
L: 1/8
R: jig
K: Bmin
|:B2f efa|fed c3|dcB cde|fgf edc|
B2f efa|fed c3|dcB AFE|FB^A B3:|
|:f^ef gf=e|def BBB|cde def|efg f3|
f^ef gf=e|f^ef gf=e|baf eaf|edc B3:|
